icons/modern/mate.svg

<svg width="32" height="32" viewBox="0 0 32 32" fill="none" xmlns="http://www.w3.org/2000/svg">
<path d="M23.3101 3.13324L21.4001 2.03324C21.2601 1.95324 21.0801 2.02324 21.0301 2.18324L20.2301 4.84324L19.9801 5.27324L21.2101 5.98324L21.4601 5.55324L23.3601 3.53324C23.4801 3.40324 23.4501 3.21324 23.3101 3.13324Z" fill="#C0BECA"/>
<path d="M23.3101 3.13324L21.4001 2.03324C21.2601 1.95324 21.0801 2.02324 21.0301 2.18324L20.2301 4.84324L19.9801 5.27324L21.2101 5.98324L21.4601 5.55324L23.3601 3.53324C23.4801 3.40324 23.4501 3.21324 23.3101 3.13324Z" fill="url(#paint0_linear_18_29765)"/>
<path d="M23.3101 3.13324L21.4001 2.03324C21.2601 1.95324 21.0801 2.02324 21.0301 2.18324L20.2301 4.84324L19.9801 5.27324L21.2101 5.98324L21.4601 5.55324L23.3601 3.53324C23.4801 3.40324 23.4501 3.21324 23.3101 3.13324Z" fill="url(#paint1_linear_18_29765)"/>
<path d="M23.3101 3.13324L21.4001 2.03324C21.2601 1.95324 21.0801 2.02324 21.0301 2.18324L20.2301 4.84324L19.9801 5.27324L21.2101 5.98324L21.4601 5.55324L23.3601 3.53324C23.4801 3.40324 23.4501 3.21324 23.3101 3.13324Z" fill="url(#paint2_radial_18_29765)"/>
<path d="M23.3101 3.13324L21.4001 2.03324C21.2601 1.95324 21.0801 2.02324 21.0301 2.18324L20.2301 4.84324L19.9801 5.27324L21.2101 5.98324L21.4601 5.55324L23.3601 3.53324C23.4801 3.40324 23.4501 3.21324 23.3101 3.13324Z" fill="url(#paint3_radial_18_29765)"/>
<path d="M19.9501 5.24324L14.6801 14.3732L15.9801 15.1232L21.2501 5.99324L19.9501 5.24324Z" fill="url(#paint4_linear_18_29765)"/>
<path d="M19.9501 5.24324L14.6801 14.3732L15.9801 15.1232L21.2501 5.99324L19.9501 5.24324Z" fill="url(#paint5_linear_18_29765)"/>
<path d="M21.0101 6.44324L19.6801 5.67324C19.4401 5.53324 19.3601 5.22324 19.5001 4.98324C19.6401 4.74324 19.9501 4.66324 20.1901 4.80324L21.5201 5.57324C21.7601 5.71324 21.8401 6.02324 21.7001 6.26324C21.5601 6.49324 21.2501 6.58324 21.0101 6.44324Z" fill="url(#paint6_radial_18_29765)"/>
<path d="M16.04 24.0833C20.4749 24.0833 24.07 20.4882 24.07 16.0533C24.07 11.6185 20.4749 8.02332 16.04 8.02332C11.6052 8.02332 8.01001 11.6185 8.01001 16.0533C8.01001 20.4882 11.6052 24.0833 16.04 24.0833Z" fill="#85C35E"/>
<path d="M16.04 24.0833C20.4749 24.0833 24.07 20.4882 24.07 16.0533C24.07 11.6185 20.4749 8.02332 16.04 8.02332C11.6052 8.02332 8.01001 11.6185 8.01001 16.0533C8.01001 20.4882 11.6052 24.0833 16.04 24.0833Z" fill="url(#paint7_radial_18_29765)"/>
<path d="M26.47 15.4833L26.5 15.5033C26.5 15.5033 26.46 15.4233 26.4 15.2933C26.31 15.0333 26.21 14.7833 26.1 14.5433C25.79 13.6633 25.5 12.4433 26.08 12.0033C27.03 11.2733 24.09 11.2833 24.09 11.2833L23.84 12.0533H8.26L8.01 11.2733C8.01 11.2733 5.08 11.2733 6.02 11.9933C6.59 12.4333 6.29 13.6133 5.97 14.4933C5.81 14.8133 5.67 15.1433 5.55 15.4733C5.54 15.4933 5.54 15.5033 5.54 15.5033H5.55C5.19 16.4633 5 17.5433 5 19.0733C5 25.1733 9.94 30.1133 16.04 30.1133C22.14 30.1133 27.08 25.1733 27.08 19.0733C27.09 17.8133 26.85 16.6033 26.47 15.4833Z" fill="#7A5445"/>
<path d="M26.47 15.4833L26.5 15.5033C26.5 15.5033 26.46 15.4233 26.4 15.2933C26.31 15.0333 26.21 14.7833 26.1 14.5433C25.79 13.6633 25.5 12.4433 26.08 12.0033C27.03 11.2733 24.09 11.2833 24.09 11.2833L23.84 12.0533H8.26L8.01 11.2733C8.01 11.2733 5.08 11.2733 6.02 11.9933C6.59 12.4333 6.29 13.6133 5.97 14.4933C5.81 14.8133 5.67 15.1433 5.55 15.4733C5.54 15.4933 5.54 15.5033 5.54 15.5033H5.55C5.19 16.4633 5 17.5433 5 19.0733C5 25.1733 9.94 30.1133 16.04 30.1133C22.14 30.1133 27.08 25.1733 27.08 19.0733C27.09 17.8133 26.85 16.6033 26.47 15.4833Z" fill="url(#paint8_radial_18_29765)"/>
<path d="M26.47 15.4833L26.5 15.5033C26.5 15.5033 26.46 15.4233 26.4 15.2933C26.31 15.0333 26.21 14.7833 26.1 14.5433C25.79 13.6633 25.5 12.4433 26.08 12.0033C27.03 11.2733 24.09 11.2833 24.09 11.2833L23.84 12.0533H8.26L8.01 11.2733C8.01 11.2733 5.08 11.2733 6.02 11.9933C6.59 12.4333 6.29 13.6133 5.97 14.4933C5.81 14.8133 5.67 15.1433 5.55 15.4733C5.54 15.4933 5.54 15.5033 5.54 15.5033H5.55C5.19 16.4633 5 17.5433 5 19.0733C5 25.1733 9.94 30.1133 16.04 30.1133C22.14 30.1133 27.08 25.1733 27.08 19.0733C27.09 17.8133 26.85 16.6033 26.47 15.4833Z" fill="url(#paint9_radial_18_29765)"/>
<path d="M26.47 15.4833L26.5 15.5033C26.5 15.5033 26.46 15.4233 26.4 15.2933C26.31 15.0333 26.21 14.7833 26.1 14.5433C25.79 13.6633 25.5 12.4433 26.08 12.0033C27.03 11.2733 24.09 11.2833 24.09 11.2833L23.84 12.0533H8.26L8.01 11.2733C8.01 11.2733 5.08 11.2733 6.02 11.9933C6.59 12.4333 6.29 13.6133 5.97 14.4933C5.81 14.8133 5.67 15.1433 5.55 15.4733C5.54 15.4933 5.54 15.5033 5.54 15.5033H5.55C5.19 16.4633 5 17.5433 5 19.0733C5 25.1733 9.94 30.1133 16.04 30.1133C22.14 30.1133 27.08 25.1733 27.08 19.0733C27.09 17.8133 26.85 16.6033 26.47 15.4833Z" fill="url(#paint10_linear_18_29765)"/>
<path d="M25.61 13.5433L24.61 12.0433H6.05C6.05 12.0433 6.37 12.3033 6.34 12.9933C6.33 13.3833 6.14 13.9933 6.14 13.9933C5.5 15.6333 5 16.4833 5 19.0733C5 25.1733 9.94 30.1133 16.04 30.1133C22.14 30.1133 27.08 25.1733 27.08 19.0733C27.09 17.0533 26.55 15.1733 25.61 13.5433Z" fill="#7A5445"/>
<path d="M25.61 13.5433L24.61 12.0433H6.05C6.05 12.0433 6.37 12.3033 6.34 12.9933C6.33 13.3833 6.14 13.9933 6.14 13.9933C5.5 15.6333 5 16.4833 5 19.0733C5 25.1733 9.94 30.1133 16.04 30.1133C22.14 30.1133 27.08 25.1733 27.08 19.0733C27.09 17.0533 26.55 15.1733 25.61 13.5433Z" fill="url(#paint11_radial_18_29765)"/>
<path d="M25.61 13.5433L24.61 12.0433H6.05C6.05 12.0433 6.37 12.3033 6.34 12.9933C6.33 13.3833 6.14 13.9933 6.14 13.9933C5.5 15.6333 5 16.4833 5 19.0733C5 25.1733 9.94 30.1133 16.04 30.1133C22.14 30.1133 27.08 25.1733 27.08 19.0733C27.09 17.0533 26.55 15.1733 25.61 13.5433Z" fill="url(#paint12_radial_18_29765)"/>
<path d="M25.61 13.5433L24.61 12.0433H6.05C6.05 12.0433 6.37 12.3033 6.34 12.9933C6.33 13.3833 6.14 13.9933 6.14 13.9933C5.5 15.6333 5 16.4833 5 19.0733C5 25.1733 9.94 30.1133 16.04 30.1133C22.14 30.1133 27.08 25.1733 27.08 19.0733C27.09 17.0533 26.55 15.1733 25.61 13.5433Z" fill="url(#paint13_linear_18_29765)"/>
<path d="M22.73 10.0333H9.35998C9.04998 10.0333 8.75998 10.1833 8.58998 10.4433L7.47998 12.0433H16.05H24.62L23.51 10.4433C23.33 10.1833 23.04 10.0333 22.73 10.0333Z" fill="url(#paint14_linear_18_29765)"/>
<path d="M26.0201 12.0433H6.05005C5.50005 12.0433 5.05005 11.5933 5.05005 11.0433V10.9933C5.05005 10.4433 5.50005 9.99329 6.05005 9.99329H26.0201C26.5701 9.99329 27.0201 10.4433 27.0201 10.9933V11.0433C27.0201 11.5933 26.5701 12.0433 26.0201 12.0433Z" fill="#D0D0D6"/>
<path d="M26.0201 12.0433H6.05005C5.50005 12.0433 5.05005 11.5933 5.05005 11.0433V10.9933C5.05005 10.4433 5.50005 9.99329 6.05005 9.99329H26.0201C26.5701 9.99329 27.0201 10.4433 27.0201 10.9933V11.0433C27.0201 11.5933 26.5701 12.0433 26.0201 12.0433Z" fill="url(#paint15_radial_18_29765)"/>
<path d="M26.0201 12.0433H6.05005C5.50005 12.0433 5.05005 11.5933 5.05005 11.0433V10.9933C5.05005 10.4433 5.50005 9.99329 6.05005 9.99329H26.0201C26.5701 9.99329 27.0201 10.4433 27.0201 10.9933V11.0433C27.0201 11.5933 26.5701 12.0433 26.0201 12.0433Z" fill="url(#paint16_linear_18_29765)"/>
<path d="M26.0201 12.0433H6.05005C5.50005 12.0433 5.05005 11.5933 5.05005 11.0433V10.9933C5.05005 10.4433 5.50005 9.99329 6.05005 9.99329H26.0201C26.5701 9.99329 27.0201 10.4433 27.0201 10.9933V11.0433C27.0201 11.5933 26.5701 12.0433 26.0201 12.0433Z" fill="url(#paint17_radial_18_29765)"/>
<defs>
<linearGradient id="paint0_linear_18_29765" x1="20.4375" y1="3.99162" x2="21.4531" y2="4.40625" gradientUnits="userSpaceOnUse">
<stop stop-color="#999C9C"/>
<stop offset="1" stop-color="#ACACB2" stop-opacity="0"/>
</linearGradient>
<linearGradient id="paint1_linear_18_29765" x1="22.1719" y1="4.8125" x2="21.4219" y2="4.125" gradientUnits="userSpaceOnUse">
<stop stop-color="#B3B3B5"/>
<stop offset="0.183962" stop-color="#C2C2C8"/>
<stop offset="0.531132" stop-color="#C4C4CD"/>
<stop offset="1" stop-color="#C1C1C7" stop-opacity="0"/>
</linearGradient>
<radialGradient id="paint2_radial_18_29765" cx="0" cy="0" r="1" gradientUnits="userSpaceOnUse" gradientTransform="translate(20.9219 5.5) rotate(117.759) scale(0.670966 1.01133)">
<stop stop-color="#E4D7D1"/>
<stop offset="1" stop-color="#E3D6D3" stop-opacity="0"/>
</radialGradient>
<radialGradient id="paint3_radial_18_29765" cx="0" cy="0" r="1" gradientUnits="userSpaceOnUse" gradientTransform="translate(22.7656 3.03125) rotate(120.466) scale(0.308173 2.03394)">
<stop stop-color="white"/>
<stop offset="1" stop-color="#CCCAD4" stop-opacity="0"/>
</radialGradient>
<linearGradient id="paint4_linear_18_29765" x1="18.9375" y1="6.875" x2="20.4844" y2="7.75" gradientUnits="userSpaceOnUse">
<stop stop-color="#9EA39E"/>
<stop offset="0.520755" stop-color="#CED8CE"/>
<stop offset="0.792997" stop-color="#CCD6CC"/>
<stop offset="1" stop-color="#BBBFBA"/>
</linearGradient>
<linearGradient id="paint5_linear_18_29765" x1="20.375" y1="6" x2="20.1406" y2="6.39062" gradientUnits="userSpaceOnUse">
<stop stop-color="#959E8C"/>
<stop offset="1" stop-color="#939783" stop-opacity="0"/>
</linearGradient>
<radialGradient id="paint6_radial_18_29765" cx="0" cy="0" r="1" gradientUnits="userSpaceOnUse" gradientTransform="translate(21.1875 5.62215) rotate(116.234) scale(0.989747 2.00846)">
<stop offset="0.0572917" stop-color="#FFD571"/>
<stop offset="0.6875" stop-color="#DCAE2B"/>
<stop offset="1" stop-color="#BF9D62"/>
</radialGradient>
<radialGradient id="paint7_radial_18_29765" cx="0" cy="0" r="1" gradientUnits="userSpaceOnUse" gradientTransform="translate(18.375 11.25) rotate(100.312) scale(13.044)">
<stop offset="0.198582" stop-color="#B4FF62"/>
<stop offset="0.602608" stop-color="#B2FF64" stop-opacity="0"/>
</radialGradient>
<radialGradient id="paint8_radial_18_29765" cx="0" cy="0" r="1" gradientUnits="userSpaceOnUse" gradientTransform="translate(21.5001 15.0076) rotate(117.495) scale(18.9529 18.9727)">
<stop stop-color="#CB937A"/>
<stop offset="0.349788" stop-color="#B47159"/>
<stop offset="1" stop-color="#AE6A57" stop-opacity="0"/>
</radialGradient>
<radialGradient id="paint9_radial_18_29765" cx="0" cy="0" r="1" gradientUnits="userSpaceOnUse" gradientTransform="translate(11.8751 31.0378) rotate(99.8407) scale(12.4336 23.8838)">
<stop stop-color="#A26289"/>
<stop offset="0.515034" stop-color="#9C5361"/>
<stop offset="1" stop-color="#9E5460" stop-opacity="0"/>
</radialGradient>
<linearGradient id="paint10_linear_18_29765" x1="16.0402" y1="12.1875" x2="16.0402" y2="13.625" gradientUnits="userSpaceOnUse">
<stop stop-color="#8A4E4B"/>
<stop offset="1" stop-color="#894F51" stop-opacity="0"/>
</linearGradient>
<radialGradient id="paint11_radial_18_29765" cx="0" cy="0" r="1" gradientUnits="userSpaceOnUse" gradientTransform="translate(21.5 15.625) rotate(118.486) scale(18.3461 18.799)">
<stop stop-color="#CB937A"/>
<stop offset="0.349788" stop-color="#B47159"/>
<stop offset="1" stop-color="#AE6A57" stop-opacity="0"/>
</radialGradient>
<radialGradient id="paint12_radial_18_29765" cx="0" cy="0" r="1" gradientUnits="userSpaceOnUse" gradientTransform="translate(11.875 31) rotate(100.251) scale(11.9406 23.8533)">
<stop stop-color="#A26289"/>
<stop offset="0.515034" stop-color="#9C5361"/>
<stop offset="1" stop-color="#9E5460" stop-opacity="0"/>
</radialGradient>
<linearGradient id="paint13_linear_18_29765" x1="16.0401" y1="12.0433" x2="16.0401" y2="13.625" gradientUnits="userSpaceOnUse">
<stop stop-color="#8A4E4B"/>
<stop offset="1" stop-color="#894F51" stop-opacity="0"/>
</linearGradient>
<linearGradient id="paint14_linear_18_29765" x1="8.26688" y1="8.84653" x2="27.3061" y2="14.8856" gradientUnits="userSpaceOnUse">
<stop stop-color="#E6E6E6"/>
<stop offset="0.9944" stop-color="#CCCCCC"/>
</linearGradient>
<radialGradient id="paint15_radial_18_29765" cx="0" cy="0" r="1" gradientUnits="userSpaceOnUse" gradientTransform="translate(4.3125 11.0183) rotate(90) scale(4.35671 8.875)">
<stop stop-color="#9C9BA1"/>
<stop offset="1" stop-color="#B0AEB6" stop-opacity="0"/>
</radialGradient>
<linearGradient id="paint16_linear_18_29765" x1="16.035" y1="10.625" x2="16.035" y2="12.0433" gradientUnits="userSpaceOnUse">
<stop stop-color="#C9B8DF" stop-opacity="0"/>
<stop offset="1" stop-color="#A686B8"/>
</linearGradient>
<radialGradient id="paint17_radial_18_29765" cx="0" cy="0" r="1" gradientUnits="userSpaceOnUse" gradientTransform="translate(23.3125 10.625) rotate(90) scale(0.750005 11.3125)">
<stop stop-color="#FFFEFF"/>
<stop offset="1" stop-color="#DAD8E2" stop-opacity="0"/>
</radialGradient>
</defs>
</svg>

<svg width="32" height="32" fill="none" xmlns="http://www.w3.org/2000/svg"><path d="m23.31 3.133-1.91-1.1a.255.255 0 0 0-.37.15l-.8 2.66-.25.43 1.23.71.25-.43 1.9-2.02c.12-.13.09-.32-.05-.4Z" fill="#C0BECA"/><path d="m23.31 3.133-1.91-1.1a.255.255 0 0 0-.37.15l-.8 2.66-.25.43 1.23.71.25-.43 1.9-2.02c.12-.13.09-.32-.05-.4Z" fill="url(#a)"/><path d="m23.31 3.133-1.91-1.1a.255.255 0 0 0-.37.15l-.8 2.66-.25.43 1.23.71.25-.43 1.9-2.02c.12-.13.09-.32-.05-.4Z" fill="url(#b)"/><path d="m23.31 3.133-1.91-1.1a.255.255 0 0 0-.37.15l-.8 2.66-.25.43 1.23.71.25-.43 1.9-2.02c.12-.13.09-.32-.05-.4Z" fill="url(#c)"/><path d="m23.31 3.133-1.91-1.1a.255.255 0 0 0-.37.15l-.8 2.66-.25.43 1.23.71.25-.43 1.9-2.02c.12-.13.09-.32-.05-.4Z" fill="url(#d)"/><path d="m19.95 5.243-5.27 9.13 1.3.75 5.27-9.13-1.3-.75Z" fill="url(#e)"/><path d="m19.95 5.243-5.27 9.13 1.3.75 5.27-9.13-1.3-.75Z" fill="url(#f)"/><path d="m21.01 6.443-1.33-.77a.505.505 0 0 1 .51-.87l1.33.77c.24.14.32.45.18.69-.14.23-.45.32-.69.18Z" fill="url(#g)"/><path d="M16.04 24.083a8.03 8.03 0 1 0 0-16.06 8.03 8.03 0 0 0 0 16.06Z" fill="#85C35E"/><path d="M16.04 24.083a8.03 8.03 0 1 0 0-16.06 8.03 8.03 0 0 0 0 16.06Z" fill="url(#h)"/><path d="m26.47 15.483.03.02s-.04-.08-.1-.21a8.37 8.37 0 0 0-.3-.75c-.31-.88-.6-2.1-.02-2.54.95-.73-1.99-.72-1.99-.72l-.25.77H8.26l-.25-.78s-2.93 0-1.99.72c.57.44.27 1.62-.05 2.5-.16.32-.3.65-.42.98-.01.02-.01.03-.01.03h.01c-.36.96-.55 2.04-.55 3.57 0 6.1 4.94 11.04 11.04 11.04 6.1 0 11.04-4.94 11.04-11.04.01-1.26-.23-2.47-.61-3.59Z" fill="#7A5445"/><path d="m26.47 15.483.03.02s-.04-.08-.1-.21a8.37 8.37 0 0 0-.3-.75c-.31-.88-.6-2.1-.02-2.54.95-.73-1.99-.72-1.99-.72l-.25.77H8.26l-.25-.78s-2.93 0-1.99.72c.57.44.27 1.62-.05 2.5-.16.32-.3.65-.42.98-.01.02-.01.03-.01.03h.01c-.36.96-.55 2.04-.55 3.57 0 6.1 4.94 11.04 11.04 11.04 6.1 0 11.04-4.94 11.04-11.04.01-1.26-.23-2.47-.61-3.59Z" fill="url(#i)"/><path d="m26.47 15.483.03.02s-.04-.08-.1-.21a8.37 8.37 0 0 0-.3-.75c-.31-.88-.6-2.1-.02-2.54.95-.73-1.99-.72-1.99-.72l-.25.77H8.26l-.25-.78s-2.93 0-1.99.72c.57.44.27 1.62-.05 2.5-.16.32-.3.65-.42.98-.01.02-.01.03-.01.03h.01c-.36.96-.55 2.04-.55 3.57 0 6.1 4.94 11.04 11.04 11.04 6.1 0 11.04-4.94 11.04-11.04.01-1.26-.23-2.47-.61-3.59Z" fill="url(#j)"/><path d="m26.47 15.483.03.02s-.04-.08-.1-.21a8.37 8.37 0 0 0-.3-.75c-.31-.88-.6-2.1-.02-2.54.95-.73-1.99-.72-1.99-.72l-.25.77H8.26l-.25-.78s-2.93 0-1.99.72c.57.44.27 1.62-.05 2.5-.16.32-.3.65-.42.98-.01.02-.01.03-.01.03h.01c-.36.96-.55 2.04-.55 3.57 0 6.1 4.94 11.04 11.04 11.04 6.1 0 11.04-4.94 11.04-11.04.01-1.26-.23-2.47-.61-3.59Z" fill="url(#k)"/><path d="m25.61 13.543-1-1.5H6.05s.32.26.29.95c-.01.39-.2 1-.2 1-.64 1.64-1.14 2.49-1.14 5.08 0 6.1 4.94 11.04 11.04 11.04 6.1 0 11.04-4.94 11.04-11.04.01-2.02-.53-3.9-1.47-5.53Z" fill="#7A5445"/><path d="m25.61 13.543-1-1.5H6.05s.32.26.29.95c-.01.39-.2 1-.2 1-.64 1.64-1.14 2.49-1.14 5.08 0 6.1 4.94 11.04 11.04 11.04 6.1 0 11.04-4.94 11.04-11.04.01-2.02-.53-3.9-1.47-5.53Z" fill="url(#l)"/><path d="m25.61 13.543-1-1.5H6.05s.32.26.29.95c-.01.39-.2 1-.2 1-.64 1.64-1.14 2.49-1.14 5.08 0 6.1 4.94 11.04 11.04 11.04 6.1 0 11.04-4.94 11.04-11.04.01-2.02-.53-3.9-1.47-5.53Z" fill="url(#m)"/><path d="m25.61 13.543-1-1.5H6.05s.32.26.29.95c-.01.39-.2 1-.2 1-.64 1.64-1.14 2.49-1.14 5.08 0 6.1 4.94 11.04 11.04 11.04 6.1 0 11.04-4.94 11.04-11.04.01-2.02-.53-3.9-1.47-5.53Z" fill="url(#n)"/><path d="M22.73 10.033H9.36c-.31 0-.6.15-.77.41l-1.11 1.6h17.14l-1.11-1.6a.945.945 0 0 0-.78-.41Z" fill="url(#o)"/><path d="M26.02 12.043H6.05c-.55 0-1-.45-1-1v-.05c0-.55.45-1 1-1h19.97c.55 0 1 .45 1 1v.05c0 .55-.45 1-1 1Z" fill="#D0D0D6"/><path d="M26.02 12.043H6.05c-.55 0-1-.45-1-1v-.05c0-.55.45-1 1-1h19.97c.55 0 1 .45 1 1v.05c0 .55-.45 1-1 1Z" fill="url(#p)"/><path d="M26.02 12.043H6.05c-.55 0-1-.45-1-1v-.05c0-.55.45-1 1-1h19.97c.55 0 1 .45 1 1v.05c0 .55-.45 1-1 1Z" fill="url(#q)"/><path d="M26.02 12.043H6.05c-.55 0-1-.45-1-1v-.05c0-.55.45-1 1-1h19.97c.55 0 1 .45 1 1v.05c0 .55-.45 1-1 1Z" fill="url(#r)"/><defs><radialGradient id="c" cx="0" cy="0" r="1" gradientUnits="userSpaceOnUse" gradientTransform="rotate(117.759 8.8 9.066) scale(.67097 1.01132)"><stop stop-color="#E4D7D1"/><stop offset="1" stop-color="#E3D6D3" stop-opacity="0"/></radialGradient><radialGradient id="d" cx="0" cy="0" r="1" gradientUnits="userSpaceOnUse" gradientTransform="rotate(120.466 10.516 8.026) scale(.30817 2.03396)"><stop stop-color="#fff"/><stop offset="1" stop-color="#CCCAD4" stop-opacity="0"/></radialGradient><radialGradient id="g" cx="0" cy="0" r="1" gradientUnits="userSpaceOnUse" gradientTransform="matrix(-.4375 .8878 -1.80158 -.88782 21.188 5.622)"><stop offset=".057" stop-color="#FFD571"/><stop offset=".688" stop-color="#DCAE2B"/><stop offset="1" stop-color="#BF9D62"/></radialGradient><radialGradient id="h" cx="0" cy="0" r="1" gradientUnits="userSpaceOnUse" gradientTransform="rotate(100.312 4.494 13.292) scale(13.044)"><stop offset=".199" stop-color="#B4FF62"/><stop offset=".603" stop-color="#B2FF64" stop-opacity="0"/></radialGradient><radialGradient id="i" cx="0" cy="0" r="1" gradientUnits="userSpaceOnUse" gradientTransform="matrix(-8.75 16.8122 -16.82975 -8.75915 21.5 15.008)"><stop stop-color="#CB937A"/><stop offset=".35" stop-color="#B47159"/><stop offset="1" stop-color="#AE6A57" stop-opacity="0"/></radialGradient><radialGradient id="j" cx="0" cy="0" r="1" gradientUnits="userSpaceOnUse" gradientTransform="matrix(-2.12502 12.25066 -23.5324 -4.08197 11.875 31.038)"><stop stop-color="#A26289"/><stop offset=".515" stop-color="#9C5361"/><stop offset="1" stop-color="#9E5460" stop-opacity="0"/></radialGradient><radialGradient id="l" cx="0" cy="0" r="1" gradientUnits="userSpaceOnUse" gradientTransform="rotate(118.486 6.1 14.21) scale(18.3461 18.799)"><stop stop-color="#CB937A"/><stop offset=".35" stop-color="#B47159"/><stop offset="1" stop-color="#AE6A57" stop-opacity="0"/></radialGradient><radialGradient id="m" cx="0" cy="0" r="1" gradientUnits="userSpaceOnUse" gradientTransform="rotate(100.251 -7.01 20.46) scale(11.9406 23.8533)"><stop stop-color="#A26289"/><stop offset=".515" stop-color="#9C5361"/><stop offset="1" stop-color="#9E5460" stop-opacity="0"/></radialGradient><radialGradient id="p" cx="0" cy="0" r="1" gradientUnits="userSpaceOnUse" gradientTransform="matrix(0 4.35671 -8.875 0 4.313 11.018)"><stop stop-color="#9C9BA1"/><stop offset="1" stop-color="#B0AEB6" stop-opacity="0"/></radialGradient><radialGradient id="r" cx="0" cy="0" r="1" gradientUnits="userSpaceOnUse" gradientTransform="matrix(0 .75 -11.3125 0 23.313 10.625)"><stop stop-color="#FFFEFF"/><stop offset="1" stop-color="#DAD8E2" stop-opacity="0"/></radialGradient><linearGradient id="a" x1="20.438" y1="3.992" x2="21.453" y2="4.406" gradientUnits="userSpaceOnUse"><stop stop-color="#999C9C"/><stop offset="1" stop-color="#ACACB2" stop-opacity="0"/></linearGradient><linearGradient id="b" x1="22.172" y1="4.813" x2="21.422" y2="4.125" gradientUnits="userSpaceOnUse"><stop stop-color="#B3B3B5"/><stop offset=".184" stop-color="#C2C2C8"/><stop offset=".531" stop-color="#C4C4CD"/><stop offset="1" stop-color="#C1C1C7" stop-opacity="0"/></linearGradient><linearGradient id="e" x1="18.938" y1="6.875" x2="20.484" y2="7.75" gradientUnits="userSpaceOnUse"><stop stop-color="#9EA39E"/><stop offset=".521" stop-color="#CED8CE"/><stop offset=".793" stop-color="#CCD6CC"/><stop offset="1" stop-color="#BBBFBA"/></linearGradient><linearGradient id="f" x1="20.375" y1="6" x2="20.141" y2="6.391" gradientUnits="userSpaceOnUse"><stop stop-color="#959E8C"/><stop offset="1" stop-color="#939783" stop-opacity="0"/></linearGradient><linearGradient id="k" x1="16.04" y1="12.188" x2="16.04" y2="13.625" gradientUnits="userSpaceOnUse"><stop stop-color="#8A4E4B"/><stop offset="1" stop-color="#894F51" stop-opacity="0"/></linearGradient><linearGradient id="n" x1="16.04" y1="12.043" x2="16.04" y2="13.625" gradientUnits="userSpaceOnUse"><stop stop-color="#8A4E4B"/><stop offset="1" stop-color="#894F51" stop-opacity="0"/></linearGradient><linearGradient id="o" x1="8.267" y1="8.847" x2="27.306" y2="14.886" gradientUnits="userSpaceOnUse"><stop stop-color="#E6E6E6"/><stop offset=".994" stop-color="#CCC"/></linearGradient><linearGradient id="q" x1="16.035" y1="10.625" x2="16.035" y2="12.043" gradientUnits="userSpaceOnUse"><stop stop-color="#C9B8DF" stop-opacity="0"/><stop offset="1" stop-color="#A686B8"/></linearGradient></defs></svg>
